src/assets/svg/icons/fa/nuevos/classic/thin/spray-can-sparkles classic thin.svg

<svg xmlns="http://www.w3.org/2000/svg" viewBox="0 0 512 512"><!--! Font Awesome Pro 6.4.0 by @fontawesome - https://fontawesome.com License - https://fontawesome.com/license (Commercial License) Copyright 2023 Fonticons, Inc. --><path d="M136 0h48c22.1 0 40 17.9 40 40v80c0 4.4-3.6 8-8 8s-8-3.6-8-8V40c0-13.3-10.7-24-24-24H136c-13.3 0-24 10.7-24 24v80c0 4.4-3.6 8-8 8s-8-3.6-8-8V40c0-22.1 17.9-40 40-40zM96 176c-44.2 0-80 35.8-80 80V448c0 26.5 21.5 48 48 48H256c26.5 0 48-21.5 48-48V256c0-44.2-35.8-80-80-80H96zM0 256c0-53 43-96 96-96H224c53 0 96 43 96 96V448c0 35.3-28.7 64-64 64H64c-35.3 0-64-28.7-64-64V256zm160 8a72 72 0 1 0 0 144 72 72 0 1 0 0-144zm88 72A88 88 0 1 1 72 336a88 88 0 1 1 176 0zM336 0c4.4 0 8 3.6 8 8V40h32c4.4 0 8 3.6 8 8s-3.6 8-8 8H344V88c0 4.4-3.6 8-8 8s-8-3.6-8-8V56H296c-4.4 0-8-3.6-8-8s3.6-8 8-8h32V8c0-4.4 3.6-8 8-8zM472 8V40h32c4.4 0 8 3.6 8 8s-3.6 8-8 8H472V88c0 4.4-3.6 8-8 8s-8-3.6-8-8V56H424c-4.4 0-8-3.6-8-8s3.6-8 8-8h32V8c0-4.4 3.6-8 8-8s8 3.6 8 8zm-8 184c4.4 0 8 3.6 8 8v32h32c4.4 0 8 3.6 8 8s-3.6 8-8 8H472v32c0 4.4-3.6 8-8 8s-8-3.6-8-8V248H424c-4.4 0-8-3.6-8-8s3.6-8 8-8h32V200c0-4.4 3.6-8 8-8zm-56-88v32h32c4.4 0 8 3.6 8 8s-3.6 8-8 8H408v32c0 4.4-3.6 8-8 8s-8-3.6-8-8V152H360c-4.4 0-8-3.6-8-8s3.6-8 8-8h32V104c0-4.4 3.6-8 8-8s8 3.6 8 8z"/></svg>

<svg xmlns="http://www.w3.org/2000/svg" viewBox="0 0 512 512"><path d="M184 0C206.1 0 224 17.91 224 40V120C224 124.4 220.4 128 216 128C211.6 128 208 124.4 208 120V40C208 26.75 197.3 16 184 16H136C122.7 16 112 26.75 112 40V120C112 124.4 108.4 128 104 128C99.58 128 96 124.4 96 120V40C96 17.91 113.9 0 136 0H184zM72 336C72 287.4 111.4 248 160 248C208.6 248 248 287.4 248 336C248 384.6 208.6 424 160 424C111.4 424 72 384.6 72 336zM160 264C120.2 264 88 296.2 88 336C88 375.8 120.2 408 160 408C199.8 408 232 375.8 232 336C232 296.2 199.8 264 160 264zM0 256C0 202.1 42.98 160 96 160H224C277 160 320 202.1 320 256V448C320 483.3 291.3 512 256 512H64C28.65 512 0 483.3 0 448V256zM16 256V448C16 474.5 37.49 496 64 496H256C282.5 496 304 474.5 304 448V256C304 211.8 268.2 176 224 176H96C51.82 176 16 211.8 16 256zM336 0C340.4 0 344 3.582 344 8V40H376C380.4 40 384 43.58 384 48C384 52.42 380.4 56 376 56H344V88C344 92.42 340.4 96 336 96C331.6 96 328 92.42 328 88V56H296C291.6 56 288 52.42 288 48C288 43.58 291.6 40 296 40H328V8C328 3.582 331.6 0 336 0zM464 0C468.4 0 472 3.582 472 8V88C472 92.42 468.4 96 464 96C459.6 96 456 92.42 456 88V8C456 3.582 459.6 0 464 0zM464 192C468.4 192 472 195.6 472 200V280C472 284.4 468.4 288 464 288C459.6 288 456 284.4 456 280V200C456 195.6 459.6 192 464 192zM400 96C404.4 96 408 99.58 408 104V184C408 188.4 404.4 192 400 192C395.6 192 392 188.4 392 184V104C392 99.58 395.6 96 400 96zM504 232H424C419.6 232 416 235.6 416 240C416 244.4 419.6 248 424 248H504C508.4 248 512 244.4 512 240C512 235.6 508.4 232 504 232zM504 40H424C419.6 40 416 43.58 416 48C416 52.42 419.6 56 424 56H504C508.4 56 512 52.42 512 48C512 43.58 508.4 40 504 40zM440 136H360C355.6 136 352 139.6 352 144C352 148.4 355.6 152 360 152H440C444.4 152 448 148.4 448 144C448 139.6 444.4 136 440 136z"/></svg>
